X: 730
P: Longways for as many as will
M: 6/4
L: 1/4
K: C
V: 1
|:\
|:\
cg2 geg | B2c dBG | cg2 gfg | c2a ^g2e |\
cg2 gfg | B2c dBG | A/B/cA GEG | A/B/cE TD2C :|
V: 2 clef=bass middle=d
|:\
c3 g3 | b2a g3 | f3 d3 | c2A e3 |\
c3 e3 | b2a g3 | e2f e2c | f2d g2c :|
|:\
e3 c3 | g3 G3 | e3 c3 | A3 e3 |\
e3 c3 | g3 G3 | f3 c3 | f2d g2c :|

